source/images/glyphs/facebook-circle-active.svg

<svg width="18px" height="18px" viewBox="0 0 18 18" version="1.1" xmlns="http://www.w3.org/2000/svg" xmlns:xlink="http://www.w3.org/1999/xlink">
    <!-- Generator: Sketch 41.2 (35397) - http://www.bohemiancoding.com/sketch -->
    <title>Shape</title>
    <desc>Created with Sketch.</desc>
    <defs></defs>
    <g id="All" stroke="none" stroke-width="1" fill="none" fill-rule="evenodd">
        <g id="facebook" fill="#FFED00">
            <path d="M10.6645263,17.9087356 C14.8395789,17.1253829 18,13.4481884 18,9.03137213 C18,4.0432027 13.9708421,0 9,0 C4.02915789,0 0,4.0432027 0,9.03137213 C0,13.6554347 3.46357895,17.4685751 7.92947368,18 L7.92947368,11.5240308 L5.64347368,11.5240308 L5.64347368,8.86690609 L7.92947368,8.86690609 L7.92947368,6.90662301 C7.92947368,4.63261857 9.31452632,3.39389458 11.3362105,3.39389458 C12.3044211,3.39389458 13.1362105,3.46614556 13.3796842,3.49846836 L13.3796842,5.87514524 L11.9775789,5.87514524 C10.8786316,5.87514524 10.6645263,6.40086617 10.6645263,7.1699588 L10.6645263,8.86690609 L13.2868421,8.86690609 L12.9457895,11.5240308 L10.6645263,11.5240308 L10.6645263,17.9087356 Z" id="Shape"></path>
        </g>
    </g>
</svg>

<svg width="18" height="18" viewBox="0 0 18 18" xmlns="http://www.w3.org/2000/svg">
    <path d="M10.665 17.91A9.03 9.03 0 0 0 18 9.03C18 4.044 13.97 0 9 0S0 4.043 0 9.03c0 4.625 3.464 8.44 7.93 8.97v-6.476H5.642V8.867H7.93v-1.96c0-2.274 1.385-3.513 3.406-3.513.968 0 1.8.072 2.044.104v2.377h-1.402c-1.1 0-1.313.526-1.313 1.295v1.697h2.622l-.34 2.657h-2.282v6.385z" fill="#FFED00" fill-rule="evenodd"/>
</svg>
